public/icons/search.svg

<svg width="17" height="19" viewBox="0 0 17 19" fill="none" xmlns="http://www.w3.org/2000/svg">
<path fill-rule="evenodd" clip-rule="evenodd" d="M15.6495 7.69475C15.6495 9.85252 14.7464 11.8028 13.2915 13.2001L16.4371 16.8857C16.7965 17.3068 16.7416 17.9337 16.3146 18.2859C15.8876 18.6382 15.2501 18.5824 14.8907 18.1614L11.6759 14.3946C10.5389 15.0279 9.22478 15.3895 7.82477 15.3895C3.50327 15.3895 0 11.9444 0 7.69475C0 3.44506 3.50327 0 7.82477 0C12.1463 0 15.6495 3.44506 15.6495 7.69475ZM7.82005 13.6C11.1448 13.6 13.84 10.954 13.84 7.69C13.84 4.426 11.1448 1.78 7.82005 1.78C4.49529 1.78 1.80005 4.426 1.80005 7.69C1.80005 10.954 4.49529 13.6 7.82005 13.6Z" fill="white"/>
</svg>

<svg width="17" height="19" fill="none" xmlns="http://www.w3.org/2000/svg"><path fill-rule="evenodd" clip-rule="evenodd" d="M15.65 7.695A7.61 7.61 0 0 1 13.29 13.2l3.146 3.686a.982.982 0 0 1-.122 1.4 1.023 1.023 0 0 1-1.424-.125l-3.215-3.766a7.892 7.892 0 0 1-3.851.995C3.503 15.39 0 11.944 0 7.694 0 3.445 3.503 0 7.825 0c4.321 0 7.824 3.445 7.824 7.695ZM7.82 13.6c3.325 0 6.02-2.646 6.02-5.91 0-3.264-2.695-5.91-6.02-5.91-3.325 0-6.02 2.646-6.02 5.91 0 3.264 2.695 5.91 6.02 5.91Z" fill="#fff"/></svg>
